img/next.svg

<svg width="42" height="25" viewBox="0 0 42 25" fill="none" xmlns="http://www.w3.org/2000/svg">
<path d="M40.8376 11.9841L30.4056 0.900533C30.1532 0.637213 29.7216 0.634943 29.4783 0.870062C29.2314 1.10883 29.2132 1.54679 29.4478 1.79737L38.8406 11.7809H1.22932C0.869121 11.7809 0.577148 12.0728 0.577148 12.433C0.577148 12.7932 0.869121 13.0852 1.22932 13.0852H38.8406L29.4478 23.0687C29.2132 23.3193 29.2277 23.7613 29.4783 23.996C29.7289 24.2307 30.1328 24.2366 30.4056 23.9655L40.8376 12.8819C41.0854 12.5768 41.0204 12.2029 40.8376 11.9855V11.9841Z" fill="white" stroke="white"/>
</svg>

<svg width="42" height="25" fill="none" xmlns="http://www.w3.org/2000/svg"><path d="M40.838 11.984L30.406.901a.67.67 0 00-.928-.03c-.247.238-.265.676-.03.926l9.393 9.984H1.229a.652.652 0 100 1.304h37.612l-9.393 9.984a.682.682 0 00.03.927c.25.235.655.24.928-.03l10.432-11.084a.7.7 0 000-.896v-.002z" fill="#fff" stroke="#fff"/></svg>
